build/svg/cmd/32/reload.svg

<?xml version="1.0" encoding="UTF-8" standalone="no"?>
<svg
   xmlns:dc="http://purl.org/dc/elements/1.1/"
   xmlns:cc="http://creativecommons.org/ns#"
   xmlns:rdf="http://www.w3.org/1999/02/22-rdf-syntax-ns#"
   xmlns:svg="http://www.w3.org/2000/svg"
   xmlns="http://www.w3.org/2000/svg"
   xmlns:sodipodi="http://sodipodi.sourceforge.net/DTD/sodipodi-0.dtd"
   xmlns:inkscape="http://www.inkscape.org/namespaces/inkscape"
   viewBox="0 0 32 32"
   version="1.1"
   id="svg4"
   sodipodi:docname="reload.svg"
   inkscape:export-filename="/home/jupiter007/Libreoffice yaru theme fullcolor/build/cmd/32/reload.png"
   inkscape:export-xdpi="95"
   inkscape:export-ydpi="95"
   inkscape:version="0.92.5 (2060ec1f9f, 2020-04-08)">
  <metadata
     id="metadata10">
    <rdf:RDF>
      <cc:Work
         rdf:about="">
        <dc:format>image/svg+xml</dc:format>
        <dc:type
           rdf:resource="http://purl.org/dc/dcmitype/StillImage" />
      </cc:Work>
    </rdf:RDF>
  </metadata>
  <defs
     id="defs8" />
  <sodipodi:namedview
     pagecolor="#ffffff"
     bordercolor="#666666"
     borderopacity="1"
     objecttolerance="10"
     gridtolerance="10"
     guidetolerance="10"
     inkscape:pageopacity="0"
     inkscape:pageshadow="2"
     inkscape:window-width="1920"
     inkscape:window-height="1011"
     id="namedview6"
     showgrid="true"
     inkscape:zoom="20.85965"
     inkscape:cx="10.229042"
     inkscape:cy="13.691325"
     inkscape:window-x="1920"
     inkscape:window-y="32"
     inkscape:window-maximized="1"
     inkscape:current-layer="svg4">
    <inkscape:grid
       type="xygrid"
       id="grid817" />
  </sodipodi:namedview>
  <circle
     style="opacity:1;fill:#762572;fill-opacity:1;fill-rule:evenodd;stroke:none;stroke-width:2;stroke-linecap:butt;stroke-linejoin:round;stroke-miterlimit:4;stroke-dasharray:none;stroke-opacity:1"
     id="path819"
     cx="16"
     cy="16"
     r="12" />
  <path
     style="opacity:1;fill:#ffffff;fill-opacity:1;fill-rule:evenodd;stroke:none;stroke-width:2;stroke-linecap:butt;stroke-linejoin:round;stroke-miterlimit:4;stroke-dasharray:none;stroke-opacity:1"
     d="M 16 8 A 8 8 0 0 0 11.503906 9.3828125 L 12.957031 10.835938 A 6 6 0 0 1 16 10 A 6 6 0 0 1 22 16 A 6 6 0 0 1 21.164062 19.042969 L 22.611328 20.490234 A 8 8 0 0 0 24 16 A 8 8 0 0 0 16 8 z M 9.3886719 11.509766 A 8 8 0 0 0 8 16 A 8 8 0 0 0 16 24 A 8 8 0 0 0 20.496094 22.617188 L 19.042969 21.164062 A 6 6 0 0 1 16 22 A 6 6 0 0 1 10 16 A 6 6 0 0 1 10.835938 12.957031 L 9.3886719 11.509766 z "
     id="path821" />
</svg>

<svg xmlns="http://www.w3.org/2000/svg" viewBox="0 0 32 32"><circle cx="16" cy="16" r="12" fill="#762572" fill-rule="evenodd"/><path d="M16 8a8 8 0 00-4.496 1.383l1.453 1.453A6 6 0 0116 10a6 6 0 016 6 6 6 0 01-.836 3.043l1.447 1.447A8 8 0 0024 16a8 8 0 00-8-8zm-6.611 3.51A8 8 0 008 16a8 8 0 008 8 8 8 0 004.496-1.383l-1.453-1.453A6 6 0 0116 22a6 6 0 01-6-6 6 6 0 01.836-3.043L9.389 11.51z" fill="#fff" fill-rule="evenodd"/></svg>
